icons/themes/default/success.svg

<svg viewBox="0 0 16 16" fill="none" xmlns="http://www.w3.org/2000/svg">
<path fill-rule="evenodd" clip-rule="evenodd" d="M8 15C11.866 15 15 11.866 15 8C15 4.13401 11.866 1 8 1C4.13401 1 1 4.13401 1 8C1 11.866 4.13401 15 8 15ZM7.4089 10.972L11.4089 5.28775L10.5911 4.71225L6.93641 9.90576L5.35678 8.2969L4.64322 8.99749L6.64322 11.0345L7.06359 11.4627L7.4089 10.972Z" fill="#029062"/>
</svg>

<svg xmlns="http://www.w3.org/2000/svg" fill="none" viewBox="0 0 16 16">
  <path fill="#029062" fill-rule="evenodd" d="M8 15A7 7 0 1 0 8 1a7 7 0 0 0 0 14Zm-.591-4.028 4-5.684-.818-.576-3.655 5.194-1.58-1.61-.713.701 2 2.037.42.429.346-.491Z" clip-rule="evenodd"/>
</svg>
